svg/N_Arrows/04.svg

<?xml version="1.0" encoding="UTF-8" standalone="no"?>
<!-- Created with Inkscape (http://www.inkscape.org/) -->
<svg
   xmlns:dc="http://purl.org/dc/elements/1.1/"
   xmlns:cc="http://web.resource.org/cc/"
   xmlns:rdf="http://www.w3.org/1999/02/22-rdf-syntax-ns#"
   xmlns:svg="http://www.w3.org/2000/svg"
   xmlns="http://www.w3.org/2000/svg"
   xmlns:sodipodi="http://sodipodi.sourceforge.net/DTD/sodipodi-0.dtd"
   xmlns:inkscape="http://www.inkscape.org/namespaces/inkscape"
   width="744.09448819"
   height="1052.3622047"
   id="svg2"
   sodipodi:version="0.32"
   inkscape:version="0.44.1"
   sodipodi:docbase="F:\ROSA VENTI"
   sodipodi:docname="rosa19.svg"
   inkscape:export-filename="F:\ROSA VENTI\ROSA VENTI1.png"
   inkscape:export-xdpi="300"
   inkscape:export-ydpi="300">
  <defs
     id="defs4" />
  <sodipodi:namedview
     id="base"
     pagecolor="#ffffff"
     bordercolor="#666666"
     borderopacity="1.0"
     inkscape:pageopacity="0.0"
     inkscape:pageshadow="2"
     inkscape:zoom="0.24748737"
     inkscape:cx="-810.41446"
     inkscape:cy="329.88151"
     inkscape:document-units="px"
     inkscape:current-layer="layer1"
     showgrid="true"
     inkscape:window-width="1280"
     inkscape:window-height="744"
     inkscape:window-x="-4"
     inkscape:window-y="-4"
     showguides="true"
     inkscape:guide-bbox="true">
    <sodipodi:guide
       orientation="horizontal"
       position="-998.03072"
       id="guide2499" />
  </sodipodi:namedview>
  <metadata
     id="metadata7">
    <rdf:RDF>
      <cc:Work
         rdf:about="">
        <dc:format>image/svg+xml</dc:format>
        <dc:type
           rdf:resource="http://purl.org/dc/dcmitype/StillImage" />
      </cc:Work>
    </rdf:RDF>
  </metadata>
  <g
     inkscape:label="Livello 1"
     inkscape:groupmode="layer"
     id="layer1">
    <g
       id="g8069"
       transform="matrix(3.640839,0,0,3.157632,3302.998,-1855.469)">
      <flowRoot
         transform="translate(-1144.722,348.222)"
         style="font-size:56px;font-family:Arial Black"
         id="flowRoot7755"
         xml:space="preserve"><flowRegion
           id="flowRegion7757"><rect
             style="font-size:56px;font-family:Arial Black"
             y="270.93362"
             x="321.42856"
             height="74.285713"
             width="68.571426"
             id="rect7759" /></flowRegion><flowPara
           id="flowPara7761">N</flowPara></flowRoot>      <g
         transform="matrix(7.722127,0,0,5.46838,5539.143,-3393.587)"
         id="g7864">
        <path
           style="fill:none;fill-rule:evenodd;stroke:black;stroke-width:0.9378258px;stroke-linecap:butt;stroke-linejoin:miter;stroke-opacity:1"
           d="M -825.62731,778.65596 L -821.18658,778.65596 L -821.18658,753.89884 L -818.82382,753.89884 L -823.42178,746.38114 L -828.35618,753.89884 L -825.62731,753.89884 L -825.62731,778.65596 z "
           id="path7860" />
        <path
           style="fill:black;fill-opacity:1;fill-rule:evenodd;stroke:black;stroke-width:1px;stroke-linecap:butt;stroke-linejoin:miter;stroke-opacity:1"
           d="M -823.16032,776.72383 L -818.16032,776.72383 L -818.16032,751.72383 L -815.5,751.72383 L -820.67703,744.13238 L -826.23287,751.72383 L -823.16032,751.72383 L -823.16032,776.72383 z "
           id="path7862" />
      </g>
    </g>
  </g>
</svg>

<svg xmlns="http://www.w3.org/2000/svg" viewBox="0 0 744.09 1052.36"><g transform="matrix(3.64084 0 0 3.15763 3303-1855.47)"><flowRoot transform="translate(-1144.72 348.22)" font-family="Arial Black" font-size="56"><flowRegion><path d="m321.43 270.93h68.57v74.28h-68.57z"/></flowRegion><flowPara>N</flowPara></flowRoot><g transform="matrix(7.72213 0 0 5.46838 5539.14-3393.59)" fill-rule="evenodd" stroke="#000"><path d="m-825.63 778.66h4.441v-24.757h2.363l-4.598-7.518-4.934 7.518h2.729v24.757z" fill="none" stroke-width=".938"/><path d="m-823.16 776.72h5v-25h2.66l-5.177-7.591-5.556 7.591h3.073v25z"/></g></g></svg>
